X: 20095
T: DRINK TO ME ONLY
C:
%R: waltz, air
B: Elias Howe "The Musician's Companion" 1843 p.9 #5
S: http://imslp.org/wiki/The_Musician's_Companion_(Howe,_Elias)
Z: 2015 John Chambers <jc:trillian.mit.edu>
M: 6/8
L: 1/8
K: D
% - - - - - - - - - - - - - - - - - - - - - - - - -
f | fff g2g | agf efg | adg f2e | d3 d2 ::\
a | afa a2a | afa a2a | b2a g2f | f3 "^D.C."e2 |]
% - - - - - - - - - - - - - - - - - - - - - - - - -

%%sep 1 1 500

